X:1
T:California -- Reel
R:reel
N:319
B:Ryan's Mammoth Collection
Z:Contributed by Ray Davies,  ray:davies99.freeserve.co.uk
M:2/4
L:1/16
K:G
v((3ded)u(^cd) bage | ((3ded)u(^cd) "4"edBG | FAfe dcBA | \
GFGA BABc |
((3ded)^cd bage | ((3ded)^cd edBG | FAfe dcBA | G2g2G2 z2:|
|:{ef}vgfef gfef | gfef gfeg | fede fede | fede fefa |
gfef gfef | gfef g"1"a"2"b"3"c' | \
"4"d'bc'a "2"b"2"gaf |1 gbaf e2z2 :|2 gbaf g2z2 |]
